X:208
T:B208-  I am come to lock all fast
Q:1/4=120
L:1/4
M:C|
K:Dm
Add3/2e/2|^cee2|(e/4f/4g/2) (f/2e/2) (f/2e/2) (f/2d/2)|\
(^c/2d/2) (e/2d/2)d2|A3/2d/2=Be|(d/2c/2) (d/2=B/2)c2|\
(f/2e/2) (d/2c/2) (d/2=B/2) (c/2A/2)|(^G/2A/2) (=B/2A/2)A2|\
zefd|zfge|a3/2g/2f(e/2d/2)|(e/2f/2) (e/2d/2)^c (=B/2A/2)|\
(A/2G/2) (F/2E/2) (F/2G/2)A|\
(e/2d/2) (^c/2=B/2) (c/2d/2) (e/2c/2)|\
(d/4e/4f/2) (e/2d/2) dd|]

